X: 24725
T: Mad Alchemist, The
R: jig
M: 6/8
K: Edorian
|:eBB dBB|eBA GFE|eBB dBB|e2f g2f|
eBB dBB|eBA GFE|eBB dBB|ABc d2B:|
|:EFG EFG|ABc d2B|EFG EFG|~A3 FED|
EFG EFG|ABc d2B|e2B ABc|1 d2A FED:|2 d2A Bcd||

